ES4T1/36/aimg/btnRight.svg

<svg clip-rule="evenodd" fill-rule="evenodd" stroke-linecap="round" stroke-linejoin="round" stroke-miterlimit="1.5" viewBox="0 0 58 28" xmlns="http://www.w3.org/2000/svg"><g stroke="#000"><path d="m54.837 1.491-15.899 1.037-20.533-1.037-13.409.303-2.944 25.831 15.073-.668 40.832.668z" fill="#fdefd3" stroke-width="2.23" transform="matrix(1 0 0 .775666 -1.004292 .45099)"/><path d="m57.957 1.794-19.019.734-20.533-1.037-16.353.303v25.831l15.073-.668 40.832.668z" fill="#ffe1a2" stroke-width="2.79" transform="matrix(1 0 0 -.172718 -1 26.6499)"/><path d="m22.74 15 7.26-8.241 6.412 8.241" fill="none" stroke-width="4.84" transform="matrix(0 .602805 -1 0 39.8837 -6.08542)"/></g></svg>

<?xml version="1.0" encoding="UTF-8" standalone="no"?>
<!DOCTYPE svg PUBLIC "-//W3C//DTD SVG 1.1//EN" "http://www.w3.org/Graphics/SVG/1.1/DTD/svg11.dtd">
<svg width="100%" height="100%" viewBox="0 0 58 28" version="1.1" xmlns="http://www.w3.org/2000/svg" xmlns:xlink="http://www.w3.org/1999/xlink" xml:space="preserve" xmlns:serif="http://www.serif.com/" style="fill-rule:evenodd;clip-rule:evenodd;stroke-linecap:round;stroke-linejoin:round;stroke-miterlimit:1.5;">
    <g transform="matrix(1,0,0,1,-1,-1)">
        <g>
            <g transform="matrix(1,0,0,0.775666,-0.00429211,1.45099)">
                <path d="M54.837,1.491L38.938,2.528L18.405,1.491L4.996,1.794L2.052,27.625L17.125,26.957L57.957,27.625L54.837,1.491Z" style="fill:rgb(253,239,211);stroke:black;stroke-width:2.23px;"/>
            </g>
            <g transform="matrix(1,-9.59322e-17,9.2911e-18,-0.172718,1.21135e-16,27.6499)">
                <path d="M57.957,1.794L38.938,2.528L18.405,1.491L2.052,1.794L2.052,27.625L17.125,26.957L57.957,27.625L57.957,1.794Z" style="fill:rgb(255,225,162);stroke:black;stroke-width:2.79px;"/>
            </g>
            <g transform="matrix(-1.10733e-16,0.602805,-1,-1.83697e-16,40.8837,-5.08542)">
                <path d="M22.74,15L30,6.759L36.412,15" style="fill:none;stroke:black;stroke-width:4.84px;"/>
            </g>
        </g>
    </g>
</svg>
